lib/preview/nrk-logo-preview-nrk-tegnspraak-with-bg.svg

<svg width="133" height="24" viewBox="0 0 133 24" fill="none" xmlns="http://www.w3.org/2000/svg">
<rect width="133" height="24" fill="#1767CE"/>
<path d="M6.00427 18V6.00109H9.94146V18H6.00427ZM15.2981 7.91078L17.5623 18H13.2534L10.5498 6.00109H12.9664C13.5206 5.9939 14.0583 6.18925 14.4788 6.55039C14.8999 6.89638 15.1892 7.3767 15.2981 7.91078ZM18.1538 18V6.00109H22.091V18H18.1538ZM25.0647 10.5641C24.6405 10.5682 24.223 10.4572 23.8568 10.243C23.4955 10.0341 23.1954 9.73396 22.9865 9.3726C22.7721 9.00633 22.661 8.58876 22.6652 8.16432C22.6604 7.74246 22.7715 7.32738 22.9865 6.96443C23.1976 6.60699 23.4974 6.31009 23.8568 6.10252C24.2231 5.8885 24.6405 5.77751 25.0647 5.78138C25.4865 5.77684 25.9014 5.88793 26.2645 6.10252C26.6203 6.31191 26.9169 6.60856 27.1263 6.96443C27.3411 7.32748 27.4522 7.74249 27.4476 8.16432C27.4515 8.58873 27.3405 9.00623 27.1263 9.3726C26.9191 9.73238 26.6222 10.0323 26.2645 10.243C25.9014 10.458 25.4862 10.5691 25.0642 10.5641H25.0647ZM28.0559 18V6.00109H31.9934V18H28.0559ZM36.978 12.5582C36.9891 12.5699 37.0735 12.7079 37.2314 12.9723C37.3893 13.2367 37.5949 13.5747 37.8482 13.9863C38.1017 14.3977 38.3692 14.8343 38.6506 15.296C38.932 15.7577 39.1969 16.1944 39.4451 16.6058C39.6924 17.0172 39.974 17.4819 40.29 18H35.9641C35.6936 17.5606 35.4484 17.1635 35.2287 16.8086C35.0091 16.4537 34.7756 16.0706 34.5281 15.6594C34.2801 15.2485 34.0349 14.8485 33.7925 14.4595C33.5501 14.0704 33.3418 13.7296 33.1675 13.4371C32.9925 13.1443 32.8713 12.9471 32.8039 12.8455C32.6368 12.5934 32.5379 12.3023 32.517 12.0005C32.5337 11.7109 32.6269 11.431 32.787 11.1891C32.8546 11.0764 32.9786 10.8764 33.1588 10.5891C33.339 10.3018 33.5503 9.96105 33.7925 9.56672C34.0347 9.17239 34.2799 8.7696 34.5281 8.35837C34.7763 7.94715 35.0098 7.56124 35.2287 7.20071C35.4488 6.84055 35.6939 6.44059 35.9641 6.00081H40.29L36.9439 11.4595C36.8404 11.6216 36.782 11.8083 36.7749 12.0005C36.786 12.2023 36.8565 12.3963 36.9774 12.5582H36.978Z" fill="white"/>
<path d="M44.8615 7.47313H48.7397V18.007H50.5179V7.47313H54.3795V5.9828H44.8615V7.47313Z" fill="#D9E9FF"/>
<path d="M62.5424 10.4622C62.2173 10.0409 61.7884 9.71117 61.2976 9.50539C60.7523 9.28283 60.1675 9.17335 59.5787 9.18361C58.9854 9.17354 58.3968 9.28897 57.8513 9.52233C57.355 9.73958 56.9127 10.0634 56.5557 10.4707C56.1878 10.8987 55.9111 11.3971 55.7425 11.9356C55.5495 12.552 55.4553 13.195 55.4633 13.8409C55.4394 14.6569 55.6105 15.4668 55.9627 16.2034C56.2846 16.8416 56.8044 17.3585 57.4445 17.6768C58.1956 18.0306 59.0197 18.2017 59.8496 18.1764C60.2488 18.1798 60.6478 18.1543 61.0433 18.1002C61.374 18.0526 61.6998 17.9761 62.0171 17.8715C62.3318 17.7659 62.6377 17.6357 62.9319 17.482L63.0504 16.178C62.8357 16.257 62.6183 16.336 62.3981 16.4151C62.178 16.4941 61.9493 16.5647 61.7122 16.6268C61.4731 16.6894 61.2297 16.7347 60.984 16.7622C60.7367 16.7904 60.488 16.8045 60.2391 16.8046C59.7945 16.8118 59.3506 16.7634 58.9179 16.6606C58.5688 16.5773 58.246 16.4085 57.9783 16.1695C57.7075 15.9119 57.509 15.5878 57.4024 15.2296C57.2917 14.8668 57.2297 14.491 57.2179 14.1118H63.3381C63.4214 13.4114 63.3899 12.7021 63.2449 12.0118C63.1259 11.4505 62.8861 10.9217 62.5424 10.4622ZM58.2746 10.8687C58.6719 10.6275 59.1307 10.5069 59.5953 10.5215C60.0605 10.4983 60.5199 10.6325 60.8993 10.9026C61.2367 11.1717 61.4775 11.5432 61.5852 11.961C61.6697 12.27 61.7113 12.5891 61.7089 12.9094H57.2548C57.2864 12.5717 57.3586 12.2391 57.4699 11.9187C57.6145 11.4893 57.8976 11.12 58.2746 10.8687Z" fill="#D9E9FF"/>
<path d="M70.8828 9.40377C70.6241 9.33295 70.361 9.27922 70.0953 9.2429C69.7921 9.20213 69.4864 9.18232 69.1805 9.18362C68.628 9.18135 68.0808 9.2908 67.5717 9.5054C67.0615 9.72136 66.5983 10.0349 66.2083 10.4284C65.7926 10.8527 65.4722 11.3608 65.2684 11.9187C65.0321 12.5726 64.9174 13.2642 64.9297 13.9594C64.9112 14.7242 65.0584 15.4839 65.3613 16.1864C65.6268 16.7872 66.0664 17.2945 66.6233 17.6429C67.2325 18.0023 67.9313 18.1814 68.6383 18.1594C69.2594 18.1572 69.8745 18.0365 70.4504 17.8038C70.7946 17.6636 71.1191 17.4792 71.4157 17.2553V17.7191C71.4227 18.1007 71.3684 18.4809 71.2551 18.8453C71.1573 19.151 70.9891 19.4294 70.764 19.6582C70.5213 19.8912 70.2244 20.06 69.9 20.1493C69.4782 20.2652 69.0418 20.3194 68.6044 20.3102C68.2565 20.3097 67.9089 20.2899 67.5632 20.251C67.2001 20.2099 66.8405 20.142 66.4875 20.0477C66.1239 19.9509 65.7675 19.8292 65.4206 19.6836L65.6068 21.1739C65.9183 21.3003 66.2381 21.405 66.564 21.4873C66.9067 21.5738 67.2544 21.6388 67.6052 21.682C67.9761 21.7276 68.3494 21.7502 68.723 21.7498C69.5565 21.7759 70.3849 21.6108 71.1447 21.2671C71.7617 20.9798 72.278 20.5137 72.6266 19.9292C72.9677 19.3285 73.1404 18.6469 73.1265 17.9562V9.18362L71.4699 9.60983C71.2787 9.52888 71.0826 9.46005 70.8828 9.40377ZM71.1958 16.1864C70.9861 16.3084 70.7682 16.4159 70.5438 16.5082C70.3462 16.5894 70.1423 16.6545 69.9342 16.703C69.7314 16.7488 69.5242 16.7716 69.3163 16.7707C68.8076 16.7891 68.3027 16.6753 67.8511 16.4405C67.4576 16.2158 67.1529 15.8632 66.9877 15.4413C66.7835 14.8919 66.6886 14.308 66.7082 13.7223C66.7006 13.2549 66.7662 12.7892 66.9027 12.3421C67.0137 11.9746 67.2046 11.6363 67.4618 11.3514C67.7123 11.0865 68.0189 10.881 68.3591 10.7501C68.7457 10.6037 69.1566 10.5318 69.57 10.5385C69.8369 10.5382 70.1033 10.5609 70.3663 10.6062C70.6356 10.6537 70.9014 10.7188 71.1622 10.801C71.2452 10.8269 71.3316 10.8614 71.4163 10.893V16.056C71.3418 16.1006 71.2658 16.1464 71.1958 16.1864Z" fill="#D9E9FF"/>
<path d="M82.3902 9.53927C81.8871 9.28513 81.3277 9.16276 80.7644 9.18362C80.2728 9.18457 79.7844 9.2617 79.3164 9.41225C78.8341 9.56587 78.3754 9.78527 77.9531 10.0643C77.7897 10.1718 77.6324 10.2901 77.4789 10.4114V9.20055L75.7515 9.45459V18.007H77.4789V11.5749C77.6461 11.477 77.8186 11.3882 77.9954 11.309C78.2333 11.2037 78.4764 11.1104 78.7237 11.0296C78.9615 10.9519 79.205 10.8924 79.4519 10.8518C79.6842 10.8131 79.9192 10.7933 80.1547 10.7925C80.4311 10.7861 80.7064 10.8291 80.9676 10.9195C81.1831 10.9972 81.3754 11.1283 81.5265 11.3006C81.682 11.4874 81.7921 11.7076 81.8482 11.9441C81.9204 12.2434 81.9545 12.5507 81.9499 12.8586V18.007H83.6773V12.503C83.6998 11.8609 83.5903 11.2211 83.3555 10.6231C83.1642 10.1639 82.8243 9.78222 82.3902 9.53927Z" fill="#D9E9FF"/>
<path d="M91.5859 14.1118C91.4124 13.9281 91.2127 13.7711 90.9931 13.6461C90.7658 13.5159 90.5277 13.4055 90.2816 13.3159C90.1009 13.2594 89.9231 13.2001 89.7481 13.138C89.5731 13.0759 89.3981 13.0195 89.2231 12.9687C89.0481 12.9179 88.8787 12.8643 88.715 12.8078C88.5615 12.7555 88.4116 12.6933 88.2662 12.6215C88.127 12.5476 87.9939 12.4626 87.8682 12.3675C87.7523 12.28 87.6545 12.1707 87.5806 12.0457C87.5059 11.9173 87.4677 11.7709 87.4702 11.6223C87.4657 11.459 87.5069 11.2977 87.5891 11.1566C87.6775 11.0179 87.7999 10.9043 87.9447 10.8264C88.1219 10.729 88.3134 10.6604 88.5121 10.6231C88.7604 10.5755 89.0129 10.5528 89.2657 10.5554C89.3896 10.5554 89.5251 10.5613 89.6722 10.5723C89.8192 10.5833 89.9796 10.6037 90.1548 10.6316C90.3301 10.6595 90.5045 10.6968 90.6795 10.7417C90.8545 10.7866 91.0324 10.8376 91.2133 10.8941C91.3808 10.9456 91.5447 11.0078 91.7041 11.0804L91.823 9.7086C91.6083 9.61828 91.3966 9.53926 91.1879 9.47152C90.9793 9.40393 90.7673 9.34739 90.5528 9.30215C90.3433 9.25777 90.1312 9.22667 89.9177 9.20902C89.7087 9.19208 89.5026 9.18361 89.2996 9.18361C88.8318 9.17883 88.3652 9.23288 87.9109 9.3445C87.5223 9.43887 87.1528 9.59927 86.8185 9.81869C86.5154 10.0191 86.2678 10.2929 86.0988 10.6147C85.9217 10.9692 85.8345 11.3617 85.8448 11.7578C85.8396 12.0431 85.8855 12.327 85.9805 12.5961C86.0607 12.822 86.1812 13.0314 86.3362 13.2142C86.4867 13.387 86.6606 13.5381 86.8527 13.663C87.0527 13.7943 87.2655 13.9049 87.4878 13.9933C87.6118 14.0384 87.7416 14.0836 87.8773 14.1288C88.0129 14.1739 88.1456 14.2163 88.2753 14.2558C88.4048 14.2956 88.5318 14.3348 88.656 14.3743C88.7802 14.4139 88.9016 14.4534 89.0202 14.4929C89.1387 14.5324 89.2544 14.5691 89.3676 14.603C89.519 14.6566 89.6661 14.7218 89.8076 14.7977C89.9319 14.8635 90.0485 14.943 90.1551 15.0348C90.2488 15.1167 90.3238 15.2178 90.375 15.3312C90.4269 15.4484 90.453 15.5755 90.4515 15.7038C90.4575 15.829 90.4355 15.9541 90.3871 16.0698C90.3387 16.1856 90.2652 16.289 90.1718 16.3727C89.9621 16.5479 89.7117 16.6674 89.4435 16.7199C89.1295 16.7893 88.8086 16.8233 88.487 16.8215C88.2859 16.8201 88.0851 16.806 87.8857 16.7792C87.6656 16.7513 87.4341 16.7118 87.1914 16.6606C86.9487 16.6094 86.7002 16.5473 86.446 16.4743C86.1921 16.4011 85.9354 16.3193 85.6757 16.2288L85.7434 17.6683C86.0366 17.7699 86.3047 17.8518 86.5478 17.9138C86.791 17.9759 87.0224 18.0296 87.2422 18.0747C87.4543 18.1187 87.6694 18.147 87.8857 18.1594C88.0944 18.1707 88.3061 18.1763 88.5208 18.1763C88.9931 18.1788 89.4642 18.1305 89.9262 18.0324C90.3329 17.9497 90.7224 17.7979 91.0778 17.5836C91.3982 17.3881 91.6635 17.1141 91.8487 16.7876C92.0425 16.4293 92.1388 16.0263 92.1278 15.6191C92.1349 15.3219 92.0861 15.0261 91.9839 14.7469C91.8929 14.5118 91.7578 14.2962 91.5859 14.1118Z" fill="#D9E9FF"/>
<path d="M100.689 9.71708C100.081 9.34492 99.3772 9.15942 98.6649 9.1836C98.2421 9.18567 97.8213 9.23971 97.4117 9.34449C96.969 9.45699 96.5422 9.62485 96.1415 9.8441C96.0619 9.88728 95.9832 9.93526 95.9044 9.98381V9.20054L94.177 9.47151V21.5634H95.9044V17.7719C95.916 17.7767 95.9267 17.782 95.9383 17.7868C96.2512 17.9169 96.5779 18.0106 96.9121 18.0663C97.3067 18.1313 97.7061 18.1625 98.106 18.1594C98.8685 18.1725 99.6204 17.9794 100.282 17.6005C100.932 17.2153 101.46 16.6548 101.806 15.9832C102.206 15.1826 102.401 14.2951 102.374 13.4005C102.39 12.6442 102.242 11.8933 101.942 11.1989C101.677 10.5938 101.242 10.0789 100.689 9.71708ZM100.24 15.382C100.036 15.8318 99.6955 16.2054 99.2661 16.4489C98.7888 16.6989 98.255 16.8214 97.7165 16.8046C97.4585 16.8047 97.2009 16.7849 96.9459 16.7453C96.6784 16.7026 96.415 16.6375 96.1584 16.5505C96.0771 16.5223 95.9891 16.4901 95.9044 16.4591V11.1145C95.927 11.1041 95.9499 11.0905 95.9722 11.0804C96.2202 10.9675 96.4516 10.8715 96.6665 10.7925C96.8697 10.7166 97.0794 10.6599 97.2931 10.6231C97.4833 10.5904 97.6759 10.5734 97.8689 10.5723C98.391 10.555 98.9092 10.6686 99.3762 10.9026C99.7846 11.1249 100.104 11.4806 100.282 11.9102C100.498 12.4598 100.599 13.0476 100.579 13.6376C100.597 14.237 100.481 14.8329 100.24 15.382Z" fill="#D9E9FF"/>
<path d="M108.013 9.31006C107.696 9.39494 107.394 9.5262 107.115 9.69958C106.826 9.87988 106.559 10.093 106.319 10.3347C106.279 10.3745 106.24 10.4193 106.201 10.4614V9.19998L104.473 9.45401V18.0064H106.201V11.6082C106.329 11.5186 106.462 11.4355 106.599 11.3593C106.768 11.266 106.944 11.1839 107.124 11.1137C107.299 11.046 107.477 10.9867 107.657 10.9359C107.843 10.8842 108.033 10.8473 108.224 10.8258C108.43 10.803 108.637 10.7973 108.843 10.8089L109.046 9.21691C108.699 9.19197 108.35 9.22343 108.013 9.31006Z" fill="#D9E9FF"/>
<path d="M117.954 16.9401C117.83 16.9514 117.706 16.9327 117.591 16.8855C117.476 16.8383 117.374 16.7641 117.294 16.6691C117.137 16.3977 117.071 16.083 117.107 15.7715L117.141 12.2828C117.145 11.9171 117.099 11.5525 117.006 11.1989C116.923 10.8889 116.786 10.5962 116.599 10.3352C116.411 10.0799 116.172 9.86655 115.896 9.7086C115.577 9.52719 115.231 9.39583 114.872 9.31908C114.432 9.22414 113.984 9.1787 113.534 9.18361C113.177 9.18345 112.821 9.20607 112.467 9.25135C112.133 9.29342 111.802 9.35849 111.476 9.4461C111.175 9.52796 110.878 9.62691 110.587 9.74247L110.384 11.182C110.666 11.0804 110.934 10.9957 111.188 10.928C111.442 10.8602 111.688 10.8038 111.925 10.7586C112.157 10.7142 112.392 10.6831 112.628 10.6655C112.859 10.6485 113.088 10.6401 113.314 10.6401C113.659 10.6328 114.004 10.6727 114.338 10.7586C114.582 10.8197 114.807 10.9421 114.99 11.1143C115.154 11.2817 115.271 11.489 115.329 11.7155C115.401 11.9947 115.436 12.2823 115.431 12.5707L115.429 12.9958L113.449 13.1296C112.772 13.1484 112.105 13.2979 111.485 13.5699C111.021 13.773 110.62 14.0977 110.325 14.5098C110.074 14.8765 109.941 15.3106 109.944 15.7546C109.94 16.1711 110.042 16.5818 110.24 16.9485C110.447 17.3252 110.759 17.634 111.138 17.8376C111.6 18.078 112.116 18.1946 112.636 18.1763C113.124 18.1876 113.609 18.1071 114.067 17.9393C114.463 17.7842 114.826 17.5542 115.134 17.2618C115.252 17.1495 115.363 17.031 115.467 16.907C115.5 17.0823 115.562 17.2509 115.651 17.4058C115.802 17.665 116.034 17.8674 116.311 17.9816C116.618 18.1048 116.946 18.1652 117.277 18.1594C117.378 18.1594 117.477 18.1566 117.573 18.151C117.667 18.1453 117.761 18.1311 117.853 18.1086C117.943 18.0857 118.024 18.0663 118.098 18.0493C118.164 18.0345 118.23 18.0147 118.293 17.9901L118.479 16.8554C118.386 16.8875 118.289 16.9101 118.191 16.9231C118.113 16.9336 118.033 16.9393 117.954 16.9401ZM115.134 16.178C114.951 16.3232 114.752 16.4481 114.542 16.5505C114.332 16.6523 114.11 16.7263 113.881 16.7707C113.644 16.8164 113.403 16.8391 113.161 16.8384C112.885 16.8463 112.611 16.7943 112.357 16.686C112.15 16.5963 111.976 16.4456 111.857 16.2542C111.74 16.0512 111.681 15.8196 111.688 15.5852C111.672 15.3029 111.749 15.023 111.908 14.7892C112.093 14.5741 112.342 14.4253 112.619 14.3659C113.052 14.2639 113.496 14.2184 113.94 14.2304H115.423L115.416 15.9112C115.33 16.0081 115.236 16.0973 115.134 16.178Z" fill="#D9E9FF"/>
<path d="M112.543 7.82877C112.863 7.98013 113.214 8.05547 113.568 8.04892C113.931 8.05605 114.291 7.97774 114.618 7.8203C114.913 7.67679 115.162 7.45395 115.338 7.17676C115.518 6.87861 115.61 6.53464 115.6 6.18603C115.611 5.93316 115.567 5.68096 115.47 5.44698C115.374 5.213 115.227 5.00287 115.041 4.83119C114.644 4.48355 114.129 4.30166 113.602 4.32311C113.249 4.31913 112.899 4.39134 112.577 4.53481C112.274 4.66949 112.018 4.89039 111.84 5.16989C111.652 5.48071 111.558 5.83963 111.569 6.20296C111.558 6.5545 111.649 6.90181 111.832 7.20215C112.007 7.47277 112.253 7.68969 112.543 7.82877ZM112.814 5.39006C112.921 5.29529 113.046 5.22257 113.181 5.17607C113.316 5.12957 113.459 5.11021 113.602 5.11908C113.812 5.10962 114.02 5.15952 114.203 5.26304C114.351 5.35397 114.469 5.48653 114.542 5.6441C114.618 5.8145 114.655 5.9995 114.652 6.18603C114.655 6.37346 114.614 6.55906 114.533 6.72796C114.457 6.88363 114.336 7.01325 114.186 7.10054C114.001 7.19871 113.794 7.2455 113.585 7.23602C113.386 7.2419 113.189 7.20131 113.009 7.11748C112.854 7.04208 112.729 6.91684 112.653 6.76183C112.57 6.58173 112.529 6.38457 112.535 6.18603C112.524 6.04129 112.544 5.89596 112.592 5.75904C112.64 5.62212 112.716 5.49654 112.814 5.39006Z" fill="#D9E9FF"/>
<path d="M125.304 18.007H127.539L123.431 13.378L127.455 9.36989H125.338L122.44 12.5538H121.815V5.22071L120.088 5.47473V18.007H121.815V13.8578H121.843L125.304 18.007Z" fill="#D9E9FF"/>
</svg>

<svg xmlns="http://www.w3.org/2000/svg" viewBox="0 0 133 24"><path fill="#1767CE" d="M0 0h133v24H0z"/><path fill="#fff" d="M6.004 18V6.001h3.937V18H6.004Zm9.294-10.09L17.562 18h-4.309L10.55 6.001h2.416a2.276 2.276 0 0 1 1.513.55c.42.345.71.826.82 1.36ZM18.154 18V6.001h3.937V18h-3.937Zm6.91-7.436a2.383 2.383 0 0 1-2.4-2.4 2.303 2.303 0 0 1 .323-1.2 2.411 2.411 0 0 1 3.278-.861c.355.209.652.506.861.861.215.363.326.778.322 1.2a2.4 2.4 0 0 1-1.183 2.079 2.302 2.302 0 0 1-1.2.321ZM28.057 18V6.001h3.937V18h-3.937Zm8.922-5.442c.011.012.096.15.253.414.158.265.364.603.617 1.014a315.936 315.936 0 0 1 1.597 2.62c.247.411.529.876.845 1.394h-4.326c-.27-.44-.516-.837-.735-1.191-.22-.355-.453-.738-.7-1.15-.249-.41-.494-.81-.737-1.2-.242-.389-.45-.73-.625-1.022-.175-.293-.296-.49-.363-.591a1.748 1.748 0 0 1-.287-.845c.017-.29.11-.57.27-.812.068-.113.192-.313.372-.6s.391-.628.633-1.022c.243-.395.488-.797.736-1.209l.7-1.157.736-1.2h4.326l-3.346 5.458a1.08 1.08 0 0 0-.17.542c.012.201.082.395.203.557h.001Z"/><path fill="#D9E9FF" d="M44.861 7.473h3.879v10.534h1.778V7.473h3.861v-1.49h-9.517v1.49ZM62.542 10.462a3.073 3.073 0 0 0-1.244-.957 4.348 4.348 0 0 0-1.72-.321 4.21 4.21 0 0 0-1.727.338 3.691 3.691 0 0 0-1.295.949 4.149 4.149 0 0 0-.813 1.465 6.122 6.122 0 0 0-.28 1.905 5.128 5.128 0 0 0 .5 2.362 3.31 3.31 0 0 0 1.481 1.474 5.267 5.267 0 0 0 2.406.5c.399.003.798-.023 1.193-.077.331-.047.657-.124.974-.229.315-.105.62-.235.915-.389l.118-1.304c-.214.079-.432.158-.652.237a8.12 8.12 0 0 1-.686.212c-.239.062-.482.108-.728.135a6.598 6.598 0 0 1-.745.043 5.342 5.342 0 0 1-1.321-.144 2.165 2.165 0 0 1-.94-.492 2.14 2.14 0 0 1-.576-.94 4.286 4.286 0 0 1-.184-1.117h6.12c.083-.7.052-1.41-.093-2.1a3.958 3.958 0 0 0-.703-1.55Zm-4.267.407a2.4 2.4 0 0 1 1.32-.348 2.07 2.07 0 0 1 1.304.382c.338.269.578.64.686 1.058.085.309.126.628.124.948h-4.454c.031-.337.104-.67.215-.99.145-.43.428-.799.805-1.05ZM70.883 9.404a6.124 6.124 0 0 0-.788-.161 6.653 6.653 0 0 0-.915-.06 4.098 4.098 0 0 0-1.608.322c-.51.216-.974.53-1.364.923a4.178 4.178 0 0 0-.94 1.49 5.707 5.707 0 0 0-.338 2.041 5.3 5.3 0 0 0 .431 2.227c.266.601.705 1.108 1.262 1.457.61.36 1.308.538 2.015.516a4.883 4.883 0 0 0 1.812-.355c.345-.14.67-.325.966-.549v.464c.007.382-.048.762-.16 1.126a2.05 2.05 0 0 1-.492.813c-.243.233-.54.402-.864.491a4.53 4.53 0 0 1-1.296.161c-.347 0-.695-.02-1.04-.059a7.388 7.388 0 0 1-1.076-.203 8.223 8.223 0 0 1-1.067-.364l.186 1.49c.311.126.631.231.957.313.343.087.69.152 1.041.195.371.046.744.068 1.118.068a5.461 5.461 0 0 0 2.422-.483 3.393 3.393 0 0 0 1.482-1.338 3.84 3.84 0 0 0 .5-1.973V9.184l-1.657.426a4.944 4.944 0 0 0-.587-.206Zm.313 6.782c-.21.122-.428.23-.652.322a3.981 3.981 0 0 1-.61.195 2.75 2.75 0 0 1-.618.068 2.946 2.946 0 0 1-1.465-.33 1.983 1.983 0 0 1-.863-1 4.502 4.502 0 0 1-.28-1.719 4.477 4.477 0 0 1 .195-1.38 2.6 2.6 0 0 1 .559-.99c.25-.266.557-.471.897-.602a3.27 3.27 0 0 1 1.211-.211c.267 0 .533.022.796.067.27.048.535.113.796.195.083.026.17.06.254.092v5.163c-.074.045-.15.09-.22.13ZM82.39 9.54a3.332 3.332 0 0 0-1.626-.356c-.491 0-.98.078-1.448.228a5.502 5.502 0 0 0-1.363.652c-.163.108-.32.226-.474.347v-1.21l-1.728.254v8.552h1.728v-6.432c.167-.098.34-.187.516-.266.238-.105.481-.199.729-.28a4.91 4.91 0 0 1 .728-.177c.232-.039.467-.059.703-.06.276-.006.551.037.813.127.215.078.407.21.558.382.156.186.266.407.322.643.072.3.106.607.102.915v5.148h1.727v-5.504a4.694 4.694 0 0 0-.322-1.88 2.22 2.22 0 0 0-.965-1.084ZM91.586 14.112a2.552 2.552 0 0 0-.593-.466 4.592 4.592 0 0 0-.711-.33c-.181-.057-.359-.116-.534-.178a9.433 9.433 0 0 0-.525-.17c-.175-.05-.344-.104-.508-.16a3.732 3.732 0 0 1-.449-.187 2.961 2.961 0 0 1-.398-.254 1.113 1.113 0 0 1-.287-.321.815.815 0 0 1-.11-.424.877.877 0 0 1 .118-.465.962.962 0 0 1 .356-.33 1.91 1.91 0 0 1 .567-.204c.248-.047.5-.07.754-.068a5.494 5.494 0 0 1 .889.077c.175.027.35.065.525.11.174.045.352.096.533.152.168.052.332.114.491.186l.119-1.371a8.04 8.04 0 0 0-.635-.237 6.234 6.234 0 0 0-.635-.17 5.087 5.087 0 0 0-.635-.093 7.65 7.65 0 0 0-.618-.025 5.581 5.581 0 0 0-1.39.16 3.493 3.493 0 0 0-1.091.475c-.304.2-.551.474-.72.796a2.417 2.417 0 0 0-.254 1.143c-.005.285.04.569.136.838.08.226.2.435.355.618.15.173.325.324.517.449.2.131.413.242.635.33a15.113 15.113 0 0 0 .787.263 41.115 41.115 0 0 1 .745.237c.119.04.234.076.348.11.151.054.298.119.44.195.124.066.24.145.347.237a.868.868 0 0 1 .296.669.844.844 0 0 1-.28.669c-.209.175-.46.294-.728.347a4.32 4.32 0 0 1-.956.102 4.763 4.763 0 0 1-.601-.043 8.627 8.627 0 0 1-.695-.118 10.718 10.718 0 0 1-.745-.187 14.8 14.8 0 0 1-.77-.245l.067 1.44c.294.1.562.183.805.245s.474.116.694.16c.212.045.427.073.644.085.208.012.42.017.635.017.472.003.943-.045 1.405-.144a3.632 3.632 0 0 0 1.152-.448c.32-.196.585-.47.77-.796.195-.359.29-.762.28-1.169a2.372 2.372 0 0 0-.144-.872 1.98 1.98 0 0 0-.398-.635ZM100.689 9.717a3.64 3.64 0 0 0-2.024-.533 5.158 5.158 0 0 0-1.253.16 5.435 5.435 0 0 0-1.508.64V9.2l-1.727.27v12.092h1.727v-3.791l.034.015c.313.13.64.224.974.28.395.064.794.096 1.194.092a4.232 4.232 0 0 0 2.176-.558 4.02 4.02 0 0 0 1.524-1.618c.4-.8.595-1.688.568-2.583a5.271 5.271 0 0 0-.432-2.201 3.4 3.4 0 0 0-1.253-1.482Zm-.449 5.665c-.204.45-.544.823-.974 1.067a3.13 3.13 0 0 1-1.55.356 4.817 4.817 0 0 1-1.558-.254c-.08-.029-.169-.06-.254-.092v-5.345c.023-.01.046-.024.068-.034.248-.113.48-.209.695-.287a3.477 3.477 0 0 1 1.202-.22 3.133 3.133 0 0 1 1.507.33c.409.222.728.578.906 1.007.216.55.317 1.138.297 1.728a4.04 4.04 0 0 1-.339 1.744ZM108.013 9.31a3.334 3.334 0 0 0-.898.39c-.289.18-.556.393-.796.635-.04.04-.079.084-.118.126V9.2l-1.728.254v8.552h1.728v-6.398a4.382 4.382 0 0 1 .923-.495c.175-.067.353-.126.533-.177a3.64 3.64 0 0 1 1.186-.127l.203-1.592a3.222 3.222 0 0 0-1.033.093ZM117.954 16.94a.77.77 0 0 1-.66-.27 1.459 1.459 0 0 1-.187-.899l.034-3.488a4.087 4.087 0 0 0-.135-1.084 2.665 2.665 0 0 0-.407-.864 2.277 2.277 0 0 0-.703-.626 3.592 3.592 0 0 0-1.024-.39 6.026 6.026 0 0 0-1.338-.135c-.357 0-.713.022-1.067.067a7.364 7.364 0 0 0-.991.195c-.301.082-.598.18-.889.296l-.203 1.44a9.913 9.913 0 0 1 1.541-.423c.232-.045.467-.076.703-.094.231-.016.46-.025.686-.025.345-.007.69.033 1.024.119.244.06.469.183.652.355.164.168.281.375.339.601.072.28.107.567.102.856l-.002.425-1.98.134a5.252 5.252 0 0 0-1.964.44 2.815 2.815 0 0 0-1.16.94c-.251.367-.384.8-.381 1.245-.004.416.098.827.296 1.193.207.377.519.686.898.89.462.24.978.357 1.498.338.488.012.973-.069 1.431-.237a3.296 3.296 0 0 0 1.067-.677c.118-.113.229-.231.333-.355.033.175.095.344.184.499.151.259.383.461.66.576.307.123.635.183.966.177.101 0 .2-.002.296-.008.094-.006.188-.02.28-.042.09-.023.171-.043.245-.06.066-.014.132-.034.195-.059l.186-1.135c-.093.032-.19.055-.288.068-.078.01-.158.016-.237.017Zm-2.82-.762c-.183.145-.382.27-.592.372-.21.102-.432.176-.661.22a3.745 3.745 0 0 1-.72.068 1.91 1.91 0 0 1-.804-.152 1.107 1.107 0 0 1-.5-.432 1.265 1.265 0 0 1-.169-.669 1.286 1.286 0 0 1 .22-.796c.185-.215.434-.364.711-.423a5.154 5.154 0 0 1 1.321-.136h1.483l-.007 1.681c-.086.097-.18.186-.282.267ZM112.543 7.829c.32.151.671.226 1.025.22.363.007.723-.071 1.05-.229a1.77 1.77 0 0 0 .72-.643c.18-.298.272-.642.262-.991a1.733 1.733 0 0 0-.559-1.355 2.057 2.057 0 0 0-1.439-.508 2.452 2.452 0 0 0-1.025.212 1.685 1.685 0 0 0-.737.635c-.188.31-.282.67-.271 1.033-.011.351.08.699.263 1 .175.27.421.487.711.626Zm.271-2.439a1.089 1.089 0 0 1 .788-.27c.21-.01.418.04.601.143.148.091.266.224.339.381.076.17.113.356.11.542a1.21 1.21 0 0 1-.119.542.876.876 0 0 1-.347.373 1.168 1.168 0 0 1-.601.135 1.274 1.274 0 0 1-.576-.119.774.774 0 0 1-.356-.355 1.284 1.284 0 0 1-.118-.576 1.05 1.05 0 0 1 .279-.796ZM125.304 18.007h2.235l-4.108-4.629 4.024-4.008h-2.117l-2.898 3.184h-.625V5.22l-1.727.254v12.532h1.727v-4.15h.028l3.461 4.15Z"/></svg>
